!!!COM: Buxtehude, Dietrich
!!!CDT: ~1637///-1707/05/09/
!!!ODT: ~1694///
!!!OTL: Sonata in F Major, Op. 1, No. 1
!!!OPS: Op. 1
!!!ONM: No. 1
!!!SCA: BuxWV 252
!!!OMD: 1. Vivace
!!!URL: http://www.lysator.liu.se/~tuben/scores
!!!ONB: Johan Tufvessons, ed.
!!!SMA: facsmile of the original edition at Uppsala University
**kern	**kern	**kern
*staff3	*staff2	*staff1
*Icemba	*Iviola	*Ivioln
*clefF4	*clefC3	*clefG2
*k[b-]	*k[b-]	*k[b-]
*met(C)	*met(C)	*met(C)
*M4/4	*M4/4	*M4/4
*MM144	*MM144	*MM144
=1-	=1-	=1-
4F\	4a\	4cc\
8r	8r	8r
8F\	8a\	8cc\
4E\	4g\	4cc\
8r	8r	8r
8E\	8g\	8cc\
=2	=2	=2
4F\	4a\	4cc\
8r	8r	8r
8E\	8g\	8cc\
8F\L	8a\L	4.cc\
8C\J	8e\J	.
[4D\	[4f\	.
.	.	16b-/LL
.	.	16a/JJ
=3	=3	=3
8D\L]	8f\L]	4.b-\
8E\J	8g\	.
4.F\	8c\	.
.	16f\L	16a/LL
.	16e\JJ	16g/JJ
.	8f\L	4a/
8AA/	16f\L	.
.	16c\JJ	.
4BBn/	[4d\	8.g/L
.	.	16f/Jk
=4	=4	=4
4.C/	8d\L]	4.e/
.	16c\L	.
.	16Bn\JJ	.
.	4.c\	.
8D\	.	8f/
4.E\	.	4.g/
.	16B-/LL	.
.	16A/JJ	.
.	8B-/L	.
8F\	8A/J	8c/
=5	=5	=5
4D\	8A\L	4f/
.	8d\	.
8r	8d\	8r
8A\	8c\J	8e/
4F\	8c\L	4a/
.	8f\	.
8r	8f\	8r
8c\	8e\J	8g/
=6	=6	=6
4A\	8e\L	4cc\
.	8a\	.
8r	8a\	8r
8d\	8f\J	8cc\
8.B-\L	8f\L	4.dd\
.	8b-\	.
16A\k	.	.
8.G\	8b-\	.
.	8b-\J	8dd\
16F\Jk	.	.
=7	=7	=7
8E\L	8b-\L	4.cc\
8C\J	16a\L	.
.	16g\JJ	.
[4F\	8a\L	.
.	16b-\L	16dd\LL
.	16a\JJ	16cc\JJ
4F\]	8g\L	8b-\L
.	8f\J	8a\
4E\	[4g\	8b-\
.	.	16cc\L
.	.	16b-\JJ
=8	=8	=8
8F\L	8g\L]	4.a/
8G\	16f\L	.
.	16e\JJ	.
8A\	4.f\	.
8F\J	.	8a/
4.c\	.	8a/L
.	16e\LL	16g/L
.	16d\JJ	16f/J
.	8e\L	8g/
8A\	8c\J	8cc/J
=9	=9	=9
8d\L	8f\L	(8b-/L
8c\	8e-\J	8a/J)
8B-\	4d\	(8dd\L
8A\J	.	8cc\J)
4G\	8g\L	(8b-/L
.	8f\J	8a/J)
8c\L	[4en\	4g/
8B-\J	.	.
=10	=10	=10
8A\L	4e\]	4.cc\
8G\J	.	.
4.F\	8a\L	.
.	8g\J	8b-\
.	8f\L	8a/L
8E-\L	8g\	8cc/
8D\	8f\	8b-/
8C\J	8e-\J	8a/J
=11	=11	=11
8BB-/L	8d/L	8g/L
8AA/	8c/	8f/
8GG/	8B-/	8e/
8FF/J	8A/J	8d/J
8EE/L	8G/L	8c#/L
8DD/J	8F/	(32d/LL
.	.	32e/J
.	.	16f/JJ)
4BB-/	8.G/	8e/L
.	.	8d/J
.	32F/LL	.
.	32G/JJJ	.
=12	=12	=12
1AA	8A\L	4.c#/
.	8a\	.
.	8e\	.
.	8f\J	8a/
.	8c#\L	8e/L
.	8d\	8f/
.	8e\	8g/
.	8f\J	8a/J
=13	=13	=13
8r	4d\	4f/
8D\L	.	.
8F\	4r	4r
8E\J	.	.
8D/L	4d\	4f/
8C/	.	.
8BB-/	4r	4r
8AA/J	.	.
=14	=14	=14
4GG/	8r	8r
.	8g\L	8b-\L
4r	8b-\	8dd\
.	8a\J	8cc\J
4GG/	8g\L	8b-\L
.	8a\	8cc\
4r	8g\	8b-\
.	8f\J	8a\J
=15	=15	=15
8r	4e\	8g/L
8C\L	.	8a/
8D\	8f\L	8.b-/
8E\J	[8g\J	.
.	.	16cc/Jk
8F\L	4g\]	8a\L
8G\	.	8b-\
8A\	[4f\	8cc\
8B-\J	.	8dd\J
=16	=16	=16
4c\	8f\L]	4g/
.	8e\	.
8A\L	8f\	8a/L
8E\J	8g\J	8b-/J
8F/L	8c\L	4a/
8AA/	8f\	.
8BB-/	8.f\	4g/
8C/J	.	.
.	16e\Jk	.
=17	=17	=17
4FF/	4f\	8.f\L
.	.	16ff\k
4r	4r	8.a\
.	.	16bn\Jk
2r	2r	8.cc\L
.	.	16ff\k
.	.	8.a\
.	.	16bn\Jk
=18	=18	=18
8r	8r	1cc
8F\L	8a\L	.
8.E\	8.g\	.
16D\Jk	16f\Jk	.
8C/L	8e\L	.
8BB-/	8g\	.
8.AA/	8.f\	.
16GG/Jk	16e\Jk	.
=19	=19	=19
4FF/	4f\	8r
.	.	8ff\L
4r	4r	8.a\
.	.	16bn\Jk
2r	2r	8.cc\L
.	.	16ff\k
.	.	8.a\
.	.	16bn\Jk
=20	=20	=20
8r	8r	1cc
8F\L	8a\L	.
8C\	8e\	.
8D\J	8f\J	.
8E\L	8g\L	.
8C\	8e\	.
8.F\	8.a\	.
16E\Jk	16g\Jk	.
=21	=21	=21
4D\	8f\L	8r
.	8a\	8ff\L
4r	8.f\	8.dd\
.	16e\Jk	16cc\Jk
8r	4d\	4bn\
8A\L	.	.
8.G\	8.e\L	4r
16F\Jk	16f\Jk	.
=22	=22	=22
4E\	8g\L	8r
.	8e\	8gg\L
4r	8.g\	8.ee\
.	16f\Jk	16dd\Jk
8r	4e\	4cc\
8B-\L	.	.
8.A\	8.f\L	4r
16G\Jk	16g\Jk	.
=23	=23	=23
4F\	8a\L	8r
.	8f\	8aa\L
4r	8.a\	8.ff\
.	16g\Jk	16ee\Jk
8r	8f\L	4dd\
8F\L	8a\	.
8.E\	8.g\	4r
16D\Jk	16f\Jk	.
=24	=24	=24
4E\	4g\	8r
.	.	8dd\L
4r	4r	8.cc\
.	.	16bn\Jk
8r	8r	4cc\
8E\L	8g\L	.
8.D\	8.f\	4r
16C\Jk	16e\Jk	.
=25	=25	=25
4D\	4f\	8r
.	.	8cc\L
4r	4r	8.bn\
.	.	16a\Jk
8r	8r	8bn\L
8F\L	8a\L	8dd\
8.E\	8.g\	8.cc\
16D\Jk	16f\Jk	16bn\Jk
=26	=26	=26
8.C/L	4e\	4cc\
16BB-/k	.	.
8AA/	4r	4r
16GG/L	.	.
16FF/JJ	.	.
8EE/L	8r	8r
8FF/J	8a\L	8dd\L
4DD/	8.f\	8.bn\
.	16g\Jk	16b\Jk
=27	=27	=27
2.CC/	1e;	1cc;
4C/	.	.
=28	=28	=28
2D\	8r	8r
.	(8f\L	(8b-\L
.	8f\	8b-\
.	8f\J)	8b-\J)
2E\	8r	8r
.	(8g\L	(8b-\L
.	8g\	8b-\
.	8g\J)	8b-\J)
=29	=29	=29
2F\	8r	8r
.	(8f\L	(8a-/L
.	8f\	8a-/
.	8f\J)	8a-/J)
2D-\	8r	8r
.	(8f\L	(8a-/L
.	8f\	8a-/
.	8f\J)	8a-/J)
=30	=30	=30
2AA-/	8r	8r
.	(8f\L	(8a-/L
.	8f\	8a-/
.	8f\J)	8a-/J)
2BB-/	8r	8r
.	(8f\L	(8a-/L
.	8f\	8a-/
.	8f\J)	8a-/J)
=31	=31	=31
2C/	8r	8r
.	(8f\L	(8a-/L
.	8f\	8a-/
.	8f\J)	8a-/J)
2D-\	8r	8r
.	(8f\L	(8a-/L
.	8f\	8a-/
.	8f\J)	8a-/J)
=32	=32	=32
4C/	4r	4r
4BBn/	4f\	4g/
2C/	4f\	2g/
.	4e\	.
=33	=33	=33
1FF;	1f;	1f;
==	==	==
*-	*-	*-
!!!ENC: Craig Stuart Sapp
!!!END: 2004/12/15/
